!!!OTL: Jiawu zhanzheng
!!!ARE: Asia, China,ÿShandong Weihai
!! III, 349, 1)
!!!SCT: C1769
!!!YEM: Copyright 1995, estate of Helmut Schaffrath.
**kern
*ICvox
*Ivox
*M2/4
*k[f#c#]
*D:
{8a
8a
8f#
8a
=1
8.dd
16b
8b
8a
=2
8f#
8dd
8b
8a
=3
8f#
8e
4a}
=4
{8.e
16f#
4a
=5
8a
8dd
8b
8a
=6
8f#
8e
8a
8f#
=7
4e
4r}
=8
{8e
8f#
4a
=9
8f#
8dd
8b
8a
=10
8a
8f#
8a
8f#
=11
8e
8d
4e}
=12
{8B
8d
8B
8d
=13
4e
4r}
=14
{4f#
4a
=15
8b
8ee
8dd
8b
=16
2a}
==
!!!AGN: Xiaodiao
!!!AMT: simple duple
!!!AIN: vox
!!!EED: Helmut Schaffrath
!!!EEV: 1.0
*-
